public/images/svg/icon-invesment.svg

<svg fill="none" height="15" viewBox="0 0 16 15" width="16" xmlns="http://www.w3.org/2000/svg"><path clip-rule="evenodd" d="m3 1c0-.552285.44772-1 1-1s1 .447715 1 1v1h6v-1c0-.552285.4477-1 1-1s1 .447715 1 1v1h1c1.1046 0 2 .89543 2 2v9c0 1.1046-.8954 2-2 2h-12c-1.104569 0-2-.8954-2-2v-9c0-1.10457.895431-2 2-2h1zm-1 4c0-.55228.44772-1 1-1h10c.5523 0 1 .44772 1 1s-.4477 1-1 1h-10c-.55228 0-1-.44772-1-1z" fill="#181818" fill-rule="evenodd"/></svg>

<svg width="16" height="15" viewBox="0 0 16 15" fill="none" xmlns="http://www.w3.org/2000/svg">
<path fill-rule="evenodd" clip-rule="evenodd" d="M3 1C3 0.447715 3.44772 0 4 0C4.55228 0 5 0.447715 5 1V2H11V1C11 0.447715 11.4477 0 12 0C12.5523 0 13 0.447715 13 1V2H14C15.1046 2 16 2.89543 16 4V13C16 14.1046 15.1046 15 14 15H2C0.895431 15 0 14.1046 0 13V4C0 2.89543 0.895431 2 2 2H3V1ZM2 5C2 4.44772 2.44772 4 3 4H13C13.5523 4 14 4.44772 14 5C14 5.55228 13.5523 6 13 6H3C2.44772 6 2 5.55228 2 5Z" fill="#181818"/>
</svg>
